X:250
T:Rakes of Mallow
M:2/4
L:1/16
Z:abc by Bruce Osborne - bosborne@kos.net
K:G
DF|G2B2 G2B2|G2B2 cBAG|F2A2 F2A2|F2A2 dcBA|!
G2B2 G2B2|G2B2 d4|cBAG FGAc|B2G2 G2:|!
|:Bd|g2fe d2c2|BABc d4|g2fe d2c2|BABc A4|!
g2fe d2c2|BABc d4|cBAG FGAc|B2G2 G2:|!
